assets/images/icon-key.svg

<svg width="24" height="25" viewBox="0 0 24 25" fill="none" xmlns="http://www.w3.org/2000/svg">
<path d="M15 9.50031H15.01M16.555 4.3433L20.157 7.9453C20.4242 8.21246 20.6362 8.52963 20.7808 8.87871C20.9254 9.2278 20.9998 9.60195 20.9998 9.9798C20.9998 10.3576 20.9254 10.7318 20.7808 11.0809C20.6362 11.43 20.4242 11.7471 20.157 12.0143L17.514 14.6573C17.2468 14.9245 16.9297 15.1365 16.5806 15.2811C16.2315 15.4257 15.8573 15.5001 15.4795 15.5001C15.1017 15.5001 14.7275 15.4257 14.3784 15.2811C14.0293 15.1365 13.7122 14.9245 13.445 14.6573L13.144 14.3563L6.586 20.9143C6.25372 21.2465 5.81507 21.4512 5.347 21.4923L5.172 21.5003H4C3.75507 21.5003 3.51866 21.4103 3.33563 21.2476C3.15259 21.0848 3.03566 20.8605 3.007 20.6173L3 20.5003V19.3283C3.00011 18.8587 3.16543 18.4042 3.467 18.0443L3.586 17.9143L4 17.5003H6V15.5003H8V13.5003L10.144 11.3563L9.843 11.0553C9.5758 10.7881 9.36384 10.471 9.21923 10.1219C9.07462 9.77279 9.00019 9.39865 9.00019 9.0208C9.00019 8.64295 9.07462 8.2688 9.21923 7.91971C9.36384 7.57063 9.5758 7.25346 9.843 6.9863L12.486 4.3433C12.7532 4.0761 13.0703 3.86414 13.4194 3.71953C13.7685 3.57492 14.1427 3.50049 14.5205 3.50049C14.8983 3.50049 15.2725 3.57492 15.6216 3.71953C15.9707 3.86414 16.2878 4.0761 16.555 4.3433Z" stroke="#FA9531" stroke-width="2" stroke-linecap="round" stroke-linejoin="round"/>
</svg>

<svg xmlns="http://www.w3.org/2000/svg" width="24" height="25" fill="none" xmlns:v="https://vecta.io/nano"><path d="M15 9.5h.01m1.545-5.157l3.602 3.602c.267.267.479.584.624.933S21 9.602 21 9.98s-.074.752-.219 1.101-.357.666-.624.933l-2.643 2.643c-.267.267-.584.479-.933.624s-.723.219-1.101.219-.752-.074-1.101-.219-.666-.357-.933-.624l-.301-.301-6.558 6.558a2 2 0 0 1-1.239.578l-.175.008H4a1 1 0 0 1-.993-.883L3 20.5v-1.172a2 2 0 0 1 .467-1.284l.119-.13L4 17.5h2v-2h2v-2l2.144-2.144-.301-.301c-.267-.267-.479-.584-.624-.933S9 9.399 9 9.021s.074-.752.219-1.101.357-.666.624-.933l2.643-2.643c.267-.267.584-.479.933-.624s.723-.219 1.101-.219.752.074 1.101.219.666.357.933.624z" stroke="#fa9531" stroke-width="2" stroke-linecap="round" stroke-linejoin="round"/></svg>
